!!!SOCIAL_FUNCTION:	miscellaneous songs
!!!PDT:	1918

Specific Region: Dakotas, Minnesota, Montana, Nebraska
!!!REG: Dakotas and Montana
!!!LING_GROUP: Siouan
!!!LANG: Tone
!!!OTL@ENG: Song of the Famine
!!!ONM: No. 240
**kern
*Imale
*clefF4
*k[b-e-a-d-]
*M2/4
*MM76
16f
8.f
8f
8f
=2
16f
16e-
8f
16f
16e-
16f
16e-
=3
8c
8c
4c
=4
8f
8f
12c
12B-
12c
=5||
*M3/4
16c
8.B-
12c
12B-
12c
16B-
16A-
16A-
16F
=6
2F
8F
8F
=7||
*M2/4
8c
8c
8B-
16B-
16A-
=8
4B-
8A-
8A-
=9
4A-
12F
8F
24F
=10
2F
=11||
*M3/4
2F
16F
8.F
=12||
*M2/4
16c
8.c
8c
(16c
16B-)
=13
16c
8.c
(12c
12B-)
12A-
=14||
*M3/4
16A-
8.F
4F
8F
8F
=15||
*M2/4
16B-
8.B-
4B-
=16
16c
8.B-
8A-
8B-
=17
16c
8.B-
16B-
8.A-
=18||
*M3/4
8A-
8A-
16A-
8.F
4F
=19
2F
4F
==
*-
!!!CNT: Native American -- Sioux
!!!MRD: 1911/07//-1914///
!!!OCL: Frances Densmore
!!!YOR1: Teton Sioux Music, Bulletin 61,
!!!YOR2: Bureau of American Ethnology, Smithsonian Institution
!!!PPR: Government Printing Office
!!!PPP: Washington, D.C.
!!!PDT: 1918///
!!!ENC: Craig Stuart Sapp
!!!END: 2002/03/25/
!!!EEV: 2002/03/31/
!!!AGN: Sisseton Song
!!!MPN@@SIO: Mato'-ite'-wakang
!!!MPN@ENG: Holy-Face Bear
!!!TXO: Santee Sioux
!!!MLC: Sisseton, South Dakota, United States of America
!!!ARL: 45.6/-97.1:
!!!catalog: Catalogue No. 647
!!!PPG: 518
!!!EFL: 245/245
!!!VTS: 1094152642
